X: 1
T: Drumelzier
R: shottish, strathspey
C: Andrew Rankine
Z: John Chambers <jc:trillian.mit.edu> http://trillian.mit.edu/~jc/music/abc/
N: Tune for "Drumelzier" strathspey
M: C
L: 1/8
K: Bb
(3DE=E \
| "Bb"F>=E F<B d>c d<f | F>=E F<B d2 c>d | "F7"e>d c>B     A<F c>d | "C7"c>B A>G "F7"F2 (3DE=E |
| "Bb"F>=E F<B d>c d<f | F>=E F<B d2 c>d | "Cm"e>d c>B "F7"A<F f>e | "Bb"d2 B2 B2 ||
d>e \
| "Bb"f>e d>c d>c B>A | "Eb"c>B A>G "F"F2 D>E | "Bb"F>[BG] F<d "C7"c>B A>G | "F"A2 F2 "F7"F2 d>e |
| "Bb"f>e d>c d>c B>A | "Eb"c>B A>G "F"F2 c>d | "Cm"e>d c>B "F7"A<F f>e | "Bb"d2 "(Eb)"B2 "Bb"B2 |]

%%sep 1 1 500

